!!!COM: Josephine Lang
!!!CNT: Deutsch
!!!TXO: Deutsch
!!!OTL: "Lied (Immer sich rein)"
!!!LYR: Schober
!!!OPS: Op. 25
!!!ONM: No. 4
!!!ENC: Alyona Dzerbina, phrasing by LVH
!!!YOR: Josephine Lang: Selected Songs
!!!YOR: Da Capo Press, 1982
!!!ODT: 1834/
!!NB: Vocal melody only encoded.
**kern
*staff1
*clefG2
*k[f#c#g#d#]
*M4/4
*MM[Ziemlich rasch]
=1
{[2g#
8g#]
8a
8a#
8b
=2
(2cc#
4b)}
4r
=3
{2g#
4.dd#
8cc#
=4
2f#}
2r
=5
{2f#
4f#
4f#
=6
4b}
4r
{[2ee
=7
2ee]
8dd#
8b
8a
8f#
=8
2e}
2r
=9
1r
=10
1r
=11
{2f#
4f#
4f#
=12
2g#
4f#}
4r
=13
{2ee
4dd#
4cc#
=14
(4dd#
4a#)
4b}
4r
=15
{2ff#
4dd#
4b
=16
(4ee
2ggn
4a#)
=17
[2b
8.b]
16a#
(12an
8c#
24d#)
=18
2e}
2r
=19
1r
=20
1r
=21
1r
=22
1r
=23
{[2g#
8g#]
8a
8a#
8b
=24
2cc#
4b
8r
8a
=25
2g#
4dd#
(4cc#
=26
4.f#)
f#q
16a
16g#
4f#}
4r
=27
{2f#
4f#
4f#
=28
4b}
4r
{[2ee
=29
2ee]
8dd#
8b
8a
8f#
=30
2e}
2r
=31
1r
=32
1r
=33
{2f#
4f#
4f#
=34
2g#
4f#}
4r
=35
{2ee
4dd#
4cc#
=36
4dd#
4a#
4b}
4r
=37
{2ff#
4dd#
8r
8b
=38
4ee
2ggn
4a#
=39
[2b
8.b]
16a#
(12an
12c#
12d#)
=40
2e}
2r
=41
1r
=42
1r
=43
1r
=44
1r
=45
{[2g#
8g#]
8a
8a#
8b
=46
2cc#
4b}
4r
=47
{2g#
4.dd#
8cc#
=48
4.f#
16a
16g#
4f#}
4r
=49
{2f#
4f#
4f#
=50
4b}
4r
{[2ee
=51
2ee]
8dd#
8b
8a
8f#
=52
2e}
2r
=53
{2f#
4f#
4f#
=54
2g#
4f#
4f#
=55
2ee
4dd#
8r
8cc#
=56
4dd#
4a#
2b}
=57
{2ff#
4dd#
8r
(8b
=58
4ee
2ggn
4a#)
=59
2b
4dd#
cc#q
bq
a#q
anq
8.c#
16d#
=60
f#q
2e}
2r
=61
1r
=62
1r
=63
1r
=64
1r
==
*-
